icon_installer/data/icons/scalable/actions/show-path-tool-symbolic.svg

<?xml version="1.0" encoding="UTF-8"?>
<svg height="16px" viewBox="0 0 16 16" width="16px" xmlns="http://www.w3.org/2000/svg">
    <g fill="#222222">
        <path d="m 8 16 v -2 h 5 v 2 z m 0 0"/>
        <path d="m 9 1 v 2 s -2 2 -2 6 c 1 1.644531 1 2.464844 1 3 v 1 h 5 v -1 c 0 -0.515625 0 -1.417969 1 -3 c 0 -4 -2 -6 -2 -6 v -2 h -1 v 4.96875 c 0.617188 0.207031 1.0625 0.78125 1.0625 1.46875 c 0 0.859375 -0.703125 1.5625 -1.5625 1.5625 s -1.5625 -0.703125 -1.5625 -1.5625 c 0 -0.679688 0.453125 -1.257812 1.0625 -1.46875 v -4.96875 z m 0 0"/>
        <path d="m 2 1 v 3 h 1 v 2.726562 c -0.675781 0.230469 -1.132812 0.871094 -1.132812 1.59375 c 0 0.71875 0.457031 1.359376 1.132812 1.589844 v 3.089844 h -1 v 3 h 3 v -3 h -1 v -3.066406 c 0.710938 -0.210938 1.199219 -0.867188 1.199219 -1.613282 c 0 -0.75 -0.488281 -1.40625 -1.199219 -1.613281 v -2.707031 h 1 v -3 z m 0 0"/>
    </g>
</svg>

<svg xmlns="http://www.w3.org/2000/svg" width="16" height="16"><path fill="#222" d="M8 16v-2h5v2zM9 1v2S7 5 7 9c1 1.645 1 2.465 1 3v1h5v-1c0-.516 0-1.418 1-3 0-4-2-6-2-6V1h-1v4.969a1.548 1.548 0 0 1 1.063 1.468c0 .86-.704 1.563-1.563 1.563s-1.563-.703-1.563-1.563c0-.68.454-1.257 1.063-1.468V1zM2 1v3h1v2.727A1.681 1.681 0 0 0 1.867 8.32c0 .72.457 1.36 1.133 1.59V13H2v3h3v-3H4V9.934A1.68 1.68 0 0 0 5.2 8.32c0-.75-.49-1.406-1.2-1.613V4h1V1zm0 0"/></svg>
